;FLAVOR:Marlin
;TIME:19716
;Filament used: 12.9863m
;Layer height: 0.2
;MINX:49
;MINY:54
;MINZ:0.2
;MAXX:167
;MAXY:166
;MAXZ:67
;Generated with Cura_SteamEngine master
M140 S60
M105
M190 S60
M104 S200
M105
M109 S200
M82 ;absolute extrusion mode
; Ender 3 Custom Start G-code
G92 E0 ; Reset Extruder
G28 ; Home all axes
G1 Z2.0 F3000 ; Move Z Axis up little to prevent scratching of Heat Bed
G1 X0.1 Y20 Z0.3 F5000.0 ; Move to start position
G1 X0.1 Y200.0 Z0.3 F1500.0 E15 ; Draw the first line
G1 X0.4 Y200.0 Z0.3 F5000.0 ; Move to side a little
G1 X0.4 Y20 Z0.3 F1500.0 E30 ; Draw the second line
G92 E0 ; Reset Extruder
G1 Z2.0 F3000 ; Move Z Axis up little to prevent scratching of Heat Bed
G1 X5 Y20 Z0.3 F5000.0 ; Move over to prevent blob squish
G92 E0
G92 E0
G1 F1500 E-6.5
;LAYER_COUNT:335
;LAYER:0
M107
G0 F6000 X52.886 Y56.627 Z0.2
;TYPE:SKIRT
G1 F1500 E0
G1 F1200 X53.626 Y56.051 E0.03119
G1 X54.412 Y55.539 E0.06239
G1 X55.239 Y55.097 E0.09358
G1 X56.101 Y54.727 E0.12478
G1 X56.991 Y54.431 E0.15597
G1 X57.903 Y54.213 E0.18716
G1 X58.83 Y54.072 E0.21835
G1 X59.701 Y54.013 E0.24738
G1 X60.022 Y54.004 E0.25806
G1 X60.33 Y54 E0.26831
G1 X140.041 Y54 E2.91951
G1 X140.9 Y54.011 E2.94808
G1 X141.837 Y54.064 E2.9793
G1 X142.765 Y54.197 E3.01048
G1 X143.679 Y54.409 E3.04168
G1 X144.571 Y54.697 E3.07286
G1 X145.436 Y55.061 E3.10407
G1 X146.266 Y55.497 E3.13526
G1 X147.057 Y56.002 E3.16647
G1 X147.801 Y56.572 E3.19764
G1 X148.679 Y57.392 E3.2376
G1 X148.912 Y57.634 E3.24877
G1 X150.735 Y59.483 E3.33513
G1 X152.574 Y61.244 E3.41982
G1 X154.41 Y62.908 E3.50224
G1 X156.367 Y64.58 E3.58785
G1 X156.838 Y64.964 E3.60806
G1 X157.386 Y65.442 E3.63224
G1 X157.534 Y65.58 E3.63897
G1 X158.192 Y66.248 E3.67016
G1 X158.79 Y66.97 E3.70134
G1 X159.325 Y67.74 E3.73253
G1 X159.595 Y68.189 E3.74995
G1 X159.678 Y68.335 E3.75554
G1 X159.905 Y68.756 E3.77145
G1 X160.072 Y69.082 E3.78363
G1 X160.464 Y69.934 E3.81482
G1 X160.825 Y70.961 E3.85103
G1 X161.598 Y73.559 E3.94118
G1 X162.384 Y75.942 E4.02464
G1 X163.245 Y78.329 E4.10904
G1 X164.168 Y80.678 E4.19298
G1 X165.159 Y83.002 E4.27702
G1 X165.688 Y84.172 E4.31972
G1 X165.977 Y84.799 E4.34269
G1 X166.334 Y85.667 E4.3739
G1 X166.615 Y86.562 E4.4051
G1 X166.819 Y87.477 E4.43628
G1 X166.944 Y88.406 E4.46746
G1 X166.98 Y88.939 E4.48523
G1 X166.986 Y89.079 E4.48989
G1 X166.996 Y89.445 E4.50207
G1 X167 Y89.866 E4.51607
G1 X166.999 Y154.415 E6.66298
G1 X166.989 Y155.142 E6.68716
G1 X166.936 Y156.079 E6.71837
G1 X166.804 Y157.007 E6.74955
G1 X166.593 Y157.921 E6.78075
G1 X166.304 Y158.813 E6.81194
G1 X165.941 Y159.678 E6.84314
G1 X165.506 Y160.509 E6.87433
G1 X165.001 Y161.299 E6.90552
G1 X164.431 Y162.044 E6.93672
G1 X163.8 Y162.738 E6.96792
G1 X163.111 Y163.375 E6.99913
G1 X162.371 Y163.951 E7.03032
G1 X161.585 Y164.462 E7.0615
G1 X160.758 Y164.904 E7.09268
G1 X159.896 Y165.274 E7.12388
G1 X159.006 Y165.569 E7.15507
G1 X158.094 Y165.788 E7.18627
G1 X157.167 Y165.928 E7.21745
G1 X156.299 Y165.987 E7.24638
G1 X155.979 Y165.996 E7.25703
G1 X155.67 Y166 E7.26731
G1 X60.565 Y165.999 E10.43051
G1 X59.867 Y165.99 E10.45373
G1 X58.931 Y165.938 E10.48491
G1 X58.002 Y165.806 E10.51612
G1 X57.088 Y165.596 E10.54731
G1 X56.195 Y165.309 E10.57851
G1 X55.33 Y164.946 E10.60971
G1 X54.499 Y164.512 E10.64089
G1 X53.708 Y164.008 E10.67209
G1 X52.963 Y163.438 E10.70329
G1 X52.269 Y162.807 E10.73448
G1 X51.632 Y162.12 E10.76564
G1 X51.055 Y161.38 E10.79685
G1 X50.543 Y160.594 E10.82805
G1 X50.1 Y159.767 E10.85926
G1 X49.729 Y158.906 E10.89044
G1 X49.433 Y158.016 E10.92164
G1 X49.214 Y157.104 E10.95283
G1 X49.073 Y156.177 E10.98402
G1 X49.013 Y155.288 E11.01365
G1 X49.004 Y154.955 E11.02473
G1 X49 Y154.658 E11.03461
G1 X49.001 Y65.525 E13.99919
G1 X49.01 Y64.86 E14.02131
G1 X49.063 Y63.924 E14.05249
G1 X49.195 Y62.995 E14.0837
G1 X49.406 Y62.081 E14.1149
G1 X49.694 Y61.189 E14.14607
G1 X50.057 Y60.324 E14.17728
G1 X50.492 Y59.493 E14.20847
G1 X50.996 Y58.703 E14.23964
G1 X51.566 Y57.958 E14.27084
G1 X52.198 Y57.264 E14.30206
G1 X52.886 Y56.627 E14.33324
G0 F6000 X53.274 Y56.823
G1 F1200 X54.01 Y56.27 E14.36386
G1 X54.791 Y55.782 E14.39449
G1 X55.611 Y55.364 E14.42511
G1 X56.465 Y55.019 E14.45574
G1 X57.345 Y54.749 E14.48636
G1 X58.245 Y54.557 E14.51696
G1 X59.159 Y54.443 E14.5476
G1 X59.712 Y54.413 E14.56602
G1 X60.033 Y54.404 E14.5767
G1 X60.33 Y54.4 E14.58658
G1 X140.041 Y54.4 E17.23778
G1 X140.895 Y54.411 E17.26618
G1 X141.814 Y54.464 E17.2968
G1 X142.725 Y54.597 E17.32742
G1 X143.621 Y54.808 E17.35804
G1 X144.495 Y55.096 E17.38864
G1 X145.342 Y55.459 E17.41929
G1 X146.153 Y55.894 E17.4499
G1 X146.924 Y56.398 E17.48054
G1 X147.648 Y56.966 E17.51115
G1 X148.39 Y57.669 E17.54514
G1 X148.581 Y57.868 E17.55432
G1 X150.457 Y59.77 E17.64317
G1 X152.293 Y61.529 E17.72774
G1 X154.165 Y63.224 E17.81173
G1 X156.115 Y64.89 E17.89704
G1 X156.585 Y65.274 E17.91722
G1 X157.113 Y65.734 E17.94052
G1 X157.261 Y65.872 E17.94725
G1 X157.906 Y66.529 E17.97787
G1 X158.492 Y67.239 E18.00849
G1 X159.247 Y68.386 E18.05416
G1 X159.33 Y68.532 E18.05975
G1 X159.549 Y68.938 E18.07509
G1 X159.716 Y69.264 E18.08727
G1 X160.1 Y70.101 E18.1179
G1 X160.442 Y71.075 E18.15223
G1 X161.22 Y73.692 E18.24304
G1 X162.014 Y76.098 E18.32731
G1 X162.86 Y78.445 E18.41029
G1 X163.8 Y80.833 E18.49565
G1 X164.794 Y83.165 E18.57996
G1 X165.301 Y84.289 E18.62097
G1 X165.614 Y84.967 E18.64581
G1 X165.963 Y85.819 E18.67643
G1 X166.237 Y86.698 E18.70705
G1 X166.434 Y87.597 E18.73767
G1 X166.58 Y88.956 E18.78313
G1 X166.586 Y89.096 E18.78779
G1 X166.596 Y89.449 E18.79953
G1 X166.6 Y89.87 E18.81354
G1 X166.599 Y154.41 E20.96014
G1 X166.589 Y155.137 E20.98433
G1 X166.536 Y156.056 E21.01494
G1 X166.404 Y156.967 E21.04556
G1 X166.193 Y157.863 E21.07618
G1 X165.906 Y158.738 E21.1068
G1 X165.543 Y159.584 E21.13742
G1 X165.109 Y160.396 E21.16805
G1 X164.605 Y161.167 E21.19868
G1 X164.037 Y161.891 E21.22929
G1 X163.408 Y162.563 E21.2599
G1 X162.723 Y163.178 E21.29052
G1 X161.987 Y163.731 E21.32114
G1 X161.206 Y164.219 E21.35177
G1 X160.386 Y164.637 E21.38238
G1 X159.532 Y164.982 E21.41302
G1 X158.652 Y165.251 E21.44362
G1 X157.751 Y165.444 E21.47427
G1 X156.838 Y165.557 E21.50487
G1 X156.288 Y165.587 E21.52319
G1 X155.968 Y165.596 E21.53384
G1 X155.67 Y165.6 E21.54375
G1 X60.57 Y165.599 E24.70679
G1 X59.872 Y165.59 E24.73001
G1 X58.953 Y165.538 E24.76062
G1 X58.042 Y165.407 E24.79123
G1 X57.146 Y165.197 E24.82184
G1 X56.271 Y164.91 E24.85247
G1 X55.424 Y164.548 E24.88311
G1 X54.612 Y164.114 E24.91373
G1 X53.841 Y163.612 E24.94433
G1 X53.116 Y163.044 E24.97496
G1 X52.443 Y162.415 E25.0056
G1 X51.828 Y161.731 E25.03619
G1 X51.274 Y160.996 E25.06681
G1 X50.786 Y160.215 E25.09744
G1 X50.367 Y159.395 E25.12806
G1 X50.021 Y158.542 E25.15868
G1 X49.751 Y157.662 E25.1893
G1 X49.558 Y156.761 E25.21994
G1 X49.444 Y155.848 E25.25054
G1 X49.413 Y155.277 E25.26956
G1 X49.404 Y154.944 E25.28064
G1 X49.4 Y154.658 E25.29016
G1 X49.401 Y65.531 E28.25453
G1 X49.41 Y64.866 E28.27665
G1 X49.462 Y63.946 E28.3073
G1 X49.594 Y63.035 E28.33792
G1 X49.805 Y62.139 E28.36853
G1 X50.092 Y61.264 E28.39916
G1 X50.455 Y60.418 E28.42978
G1 X50.889 Y59.606 E28.4604
G1 X51.392 Y58.835 E28.49102
G1 X51.961 Y58.111 E28.52165
G1 X52.589 Y57.439 E28.55224
G1 X53.274 Y56.823 E28.58288
G0 F6000 X53.662 Y57.024
G1 F1200 X54.394 Y56.494 E28.61294
G1 X55.169 Y56.031 E28.64297
G1 X55.982 Y55.638 E28.673
G1 X56.827 Y55.318 E28.70305
G1 X57.696 Y55.075 E28.73306
G1 X58.584 Y54.909 E28.76311
G1 X59.723 Y54.813 E28.80113
G1 X60.044 Y54.804 E28.81181
G1 X60.33 Y54.8 E28.82132
G1 X140.041 Y54.8 E31.47252
G1 X140.889 Y54.811 E31.50073
G1 X141.791 Y54.864 E31.53078
G1 X142.684 Y54.996 E31.5608
G1 X143.562 Y55.207 E31.59084
G1 X144.418 Y55.495 E31.62088
G1 X145.245 Y55.857 E31.6509
G1 X146.037 Y56.291 E31.68094
G1 X146.788 Y56.793 E31.71099
G1 X147.491 Y57.36 E31.74103
G1 X148.102 Y57.946 E31.76918
G1 X148.33 Y58.184 E31.78014
G1 X150.178 Y60.057 E31.86766
G1 X152.031 Y61.832 E31.953
G1 X153.883 Y63.509 E32.0361
G1 X155.841 Y65.183 E32.12178
G1 X156.333 Y65.584 E32.14289
G1 X156.84 Y66.027 E32.16529
G1 X156.988 Y66.165 E32.17202
G1 X157.621 Y66.809 E32.20205
G1 X158.194 Y67.507 E32.23209
G1 X158.899 Y68.584 E32.2749
G1 X158.982 Y68.73 E32.28049
G1 X159.193 Y69.121 E32.29526
G1 X159.36 Y69.447 E32.30745
G1 X159.736 Y70.268 E32.33748
G1 X160.059 Y71.189 E32.36994
G1 X160.837 Y73.805 E32.46072
G1 X161.642 Y76.244 E32.54614
G1 X162.495 Y78.609 E32.62976
G1 X163.423 Y80.969 E32.71411
G1 X164.419 Y83.307 E32.79863
G1 X164.969 Y84.524 E32.84305
G1 X165.251 Y85.135 E32.86543
G1 X165.593 Y85.971 E32.89548
G1 X165.859 Y86.834 E32.92551
G1 X166.048 Y87.717 E32.95555
G1 X166.181 Y88.973 E32.99755
G1 X166.187 Y89.113 E33.00221
G1 X166.196 Y89.453 E33.01353
G1 X166.2 Y89.874 E33.02753
G1 X166.199 Y154.404 E35.17381
G1 X166.189 Y155.131 E35.19799
G1 X166.137 Y156.033 E35.22804
G1 X166.005 Y156.926 E35.25806
G1 X165.794 Y157.805 E35.28813
G1 X165.507 Y158.661 E35.31816
G1 X165.145 Y159.488 E35.34818
G1 X164.711 Y160.28 E35.37822
G1 X164.209 Y161.031 E35.40827
G1 X163.643 Y161.734 E35.43828
G1 X163.016 Y162.385 E35.46835
G1 X162.335 Y162.977 E35.49836
G1 X161.604 Y163.507 E35.52839
G1 X160.828 Y163.97 E35.55844
G1 X160.015 Y164.363 E35.58848
G1 X159.17 Y164.683 E35.61853
G1 X158.301 Y164.926 E35.64854
G1 X157.413 Y165.091 E35.67858
G1 X156.277 Y165.187 E35.7165
G1 X155.957 Y165.196 E35.72715
G1 X155.67 Y165.2 E35.7367
G1 X60.575 Y165.199 E38.89957
G1 X59.877 Y165.19 E38.92279
G1 X58.976 Y165.139 E38.9528
G1 X58.082 Y165.007 E38.98286
G1 X57.204 Y164.798 E39.01288
G1 X56.347 Y164.511 E39.04294
G1 X55.52 Y164.15 E39.07295
G1 X54.727 Y163.717 E39.103
G1 X53.976 Y163.216 E39.13303
G1 X53.272 Y162.65 E39.16307
G1 X52.621 Y162.024 E39.19311
G1 X52.028 Y161.343 E39.22314
G1 X51.498 Y160.612 E39.25317
G1 X51.034 Y159.837 E39.28322
G1 X50.64 Y159.024 E39.31327
G1 X50.32 Y158.18 E39.34329
G1 X50.076 Y157.31 E39.37334
G1 X49.91 Y156.422 E39.40339
G1 X49.813 Y155.267 E39.44194
G1 X49.804 Y154.934 E39.45302
G1 X49.8 Y154.658 E39.4622
G1 X49.801 Y65.536 E42.42641
G1 X49.81 Y64.871 E42.44853
G1 X49.862 Y63.969 E42.47858
G1 X49.994 Y63.076 E42.5086
G1 X50.204 Y62.198 E42.53863
G1 X50.491 Y61.341 E42.56869
G1 X50.853 Y60.514 E42.59871
G1 X51.286 Y59.722 E42.62874
G1 X51.788 Y58.971 E42.65878
G1 X52.355 Y58.267 E42.68885
G1 X52.981 Y57.617 E42.71886
G1 X53.662 Y57.024 E42.74889
G1 F1500 E36.24889
G0 F6000 X140.861 Y64.337
G0 X141.176 Y64.511
G0 X148.018 Y73.992
G1 F1500 E42.74889
G1 F1200 X148.265 Y74.009 E42.75713
G1 X148.565 Y73.985 E42.76714
G1 X148.973 Y73.992 E42.78071
G1 X149.236 Y74.028 E42.78954
G1 X149.512 Y74.002 E42.79876
G1 X149.611 Y74.091 E42.80319
G1 X149.566 Y74.175 E42.80636
G1 X149.509 Y74.196 E42.80838
G1 X149.226 Y74.172 E42.81783
G1 X148.984 Y74.208 E42.82596
G1 X148.733 Y74.19 E42.83433
G1 X148.56 Y74.214 E42.84014
G1 X148.278 Y74.191 E42.84955
G1 X148.153 Y74.208 E42.85375
G1 X148.018 Y73.992 E42.86222
G0 F6000 X148.109 Y73.583
G1 F1200 X148.234 Y73.61 E42.86647
G1 X148.581 Y73.583 E42.87805
G1 X148.71 Y73.611 E42.88244
G1 X149.027 Y73.587 E42.89301
G1 X149.199 Y73.63 E42.89891
G1 X149.568 Y73.595 E42.91124
G1 X149.875 Y73.736 E42.92247
G1 X150.064 Y74.092 E42.93588
G1 X149.861 Y74.472 E42.95021
G1 X149.563 Y74.603 E42.96104
G1 X149.191 Y74.571 E42.97346
G1 X149.03 Y74.612 E42.97898
G1 X148.705 Y74.589 E42.98982
G1 X148.578 Y74.618 E42.99415
G1 X148.245 Y74.59 E43.00526
G1 X147.932 Y74.608 E43.01569
G1 X147.304 Y73.604 E43.05508
G1 X147.599 Y73.581 E43.06492
G1 X147.736 Y73.612 E43.06959
G1 X148.109 Y73.583 E43.08204
G1 F1500 E36.58204
;MESH:box.stl
G0 F6000 X118.837 Y73.583
G0 X120.292 Y73.583
G0 X119.93 Y97.43
G0 X110.897 Y97.602
;TYPE:WALL-INNER
G1 F1500 E43.08204
G1 F1200 X120.102 Y97.602 E43.3882
G1 X120.102 Y69.397 E44.3263
G1 X110.897 Y69.397 E44.63246
G1 X110.897 Y97.602 E45.57056
G0 F6000 X111.297 Y97.202
;TYPE:WALL-OUTER
G1 F1200 X119.702 Y97.202 E45.85011
G1 X119.702 Y69.797 E46.76161
G1 X111.297 Y69.797 E47.04116
G1 X111.297 Y97.202 E47.95265
G1 F1500 E41.45265
G0 F6000 X110.997 Y97.202
G0 X114.602 Y97.792
G0 X114.602 Y96.337
G0 X113.349 Y105.65
G0 X114.602 Y104.207
G0 X114.602 Y118.603
;TYPE:WALL-INNER
G1 F1500 E47.95265
G1 F1200 X114.602 Y104.397 E48.42514
G1 X68.397 Y104.397 E49.96193
G1 X68.397 Y118.603 E50.43442
G1 X114.602 Y118.603 E51.97121
G0 F6000 X114.202 Y118.203
;TYPE:WALL-OUTER
G1 F1200 X114.202 Y104.797 E52.41709
G1 X68.797 Y104.797 E53.92727
G1 X68.797 Y118.203 E54.37315
G1 X114.202 Y118.203 E55.88333
G1 F1500 E49.38333
G0 F6000 X114.502 Y118.203
G0 X96.897 Y118.793
G0 X96.897 Y117.338
G0 X98.15 Y129.651
G0 X96.897 Y128.208
G0 X96.897 Y147.603
;TYPE:WALL-INNER
G1 F1500 E55.88333
G1 F1200 X148.103 Y147.603 E57.58645
G1 X148.103 Y128.398 E58.22521
G1 X96.897 Y128.398 E59.92833
G1 X96.897 Y147.603 E60.56709
G0 F6000 X97.297 Y147.203
;TYPE:WALL-OUTER
G1 F1200 X147.703 Y147.203 E62.2436
G1 X147.703 Y128.798 E62.85575
G1 X97.297 Y128.798 E64.53226
G1 X97.297 Y147.203 E65.14442
G1 F1500 E58.64442
G0 F6000 X96.997 Y147.203
G0 X101.299 Y147.773
G0 X101.299 Y146.338
G0 X148.293 Y155.665
G0 X148.293 Y154.19
G0 X155.4 Y154.4
;TYPE:WALL-INNER
G1 F1500 E65.14442
G1 F1200 X60.6 Y154.4 E68.29748
G1 X60.6 Y65.6 E71.25098
G1 X140.415 Y65.6 E73.90563
G1 X155.4 Y89.58 E74.84613
G1 X155.4 Y154.4 E77.00205
G0 F6000 X155.8 Y154.8
;TYPE:WALL-OUTER
G1 F1200 X60.2 Y154.8 E80.18172
G1 X60.2 Y65.2 E83.16183
G1 X140.637 Y65.2 E85.83718
G1 X155.8 Y89.466 E86.78888
G1 X155.8 Y154.8 E88.9619
G0 F6000 X155.53 Y154.53
G0 X155.29 Y154.01
G0 X155.01 Y154.01
;TYPE:SKIN
G1 F1200 X60.99 Y154.01 E92.08901
G1 X60.99 Y65.99 E95.01657
G1 X140.199 Y65.99 E97.65107
G1 X155.01 Y89.693 E98.58069
G1 X155.01 Y154.01 E100.71988
G1 F1500 E94.21988
G0 F6000 X155.29 Y154.01
G0 X148.213 Y154.19
G0 X148.213 Y155.665
G0 X146.85 Y146.35
G0 X148.213 Y147.793
G1 F1500 E100.71988
G0 F6000 X148.493 Y147.993
G1 F1200 X148.493 Y128.008 E101.38459
G1 X96.507 Y128.008 E103.11365
G1 X96.507 Y147.993 E103.77835
G1 X148.493 Y147.993 E105.50741
G1 F1500 E99.00741
G0 F6000 X148.213 Y147.743
G0 X147.931 Y128.57
G0 X114.712 Y128.208
G0 X114.712 Y129.663
G0 X113.349 Y117.35
G0 X114.712 Y118.793
G1 F1500 E105.50741
G0 F6000 X114.992 Y118.993
G1 F1200 X114.992 Y104.007 E106.00585
G1 X68.007 Y104.007 E107.56858
G1 X68.007 Y118.993 E108.06701
G1 X114.992 Y118.993 E109.62974
G1 F1500 E103.12974
G0 F6000 X114.712 Y118.743
G0 X114.772 Y108.461
G0 X113.337 Y108.461
G0 X114.798 Y96.337
G0 X114.798 Y97.792
G0 X120.212 Y97.742
G1 F1500 E109.62974
G0 F6000 X120.492 Y97.992
G1 F1200 X120.492 Y69.007 E110.59379
G1 X110.507 Y69.007 E110.92589
G1 X110.507 Y97.992 E111.88993
G1 X120.492 Y97.992 E112.22204
G1 F1500 E105.72204
G0 F6000 X120.212 Y97.742
G0 X120.272 Y82.009
G0 X118.837 Y82.009
G0 X120.298 Y64.335
G0 X120.298 Y65.81
G0 X139.688 Y65.71
G1 F1500 E112.22204
G0 F6000 X139.688 Y66.149
G1 F1200 X140.809 Y67.269 E112.27474
G0 F6000 X141.182 Y67.037
G0 X142.124 Y68.544
G0 X141.75 Y68.777
G1 F1200 X139.123 Y66.149 E112.39833
G0 F6000 X138.557 Y66.149
G1 F1200 X142.693 Y70.285 E112.59288
G0 F6000 X143.067 Y70.053
G0 X144.009 Y71.561
G0 X143.635 Y71.793
G1 F1200 X137.991 Y66.149 E112.85835
G0 F6000 X137.426 Y66.149
G1 F1200 X144.577 Y73.301 E113.19474
G0 F6000 X144.951 Y73.068
G0 X145.894 Y74.576
G0 X145.519 Y74.809
G1 F1200 X136.86 Y66.149 E113.60205
G0 F6000 X136.294 Y66.149
G1 F1200 X146.461 Y76.316 E114.08028
G0 F6000 X146.835 Y76.083
G0 X147.778 Y77.592
G0 X147.404 Y77.824
G1 F1200 X135.729 Y66.149 E114.62943
G0 F6000 X135.163 Y66.149
G1 F1200 X148.346 Y79.332 E115.24952
G0 F6000 X148.72 Y79.1
G0 X149.662 Y80.607
G0 X149.288 Y80.84
G1 F1200 X134.597 Y66.149 E115.94054
G0 F6000 X134.032 Y66.149
G1 F1200 X150.23 Y82.348 E116.70247
G0 F6000 X150.605 Y82.115
G0 X151.547 Y83.624
G0 X151.173 Y83.856
G1 F1200 X133.466 Y66.149 E117.53535
G0 F6000 X132.9 Y66.149
G1 F1200 X152.114 Y85.364 E118.43914
G0 F6000 X152.489 Y85.131
G0 X153.432 Y86.639
G0 X153.057 Y86.872
G1 F1200 X132.335 Y66.149 E119.41387
G0 F6000 X131.769 Y66.149
G1 F1200 X153.999 Y88.379 E120.4595
